src/images/icons/Market.svg

<svg width="22" height="20" viewBox="0 0 22 20" fill="none" xmlns="http://www.w3.org/2000/svg">
<path d="M21.4959 4.05469L19.6086 0.952381C19.1304 0 17.6095 0 17.2173 0L4.78255 0C4.39034 0 3.34777 0 2.86951 0.952381L0.498512 4.05469C-0.698333 5.88281 0.361036 8.42578 2.59703 8.71875C2.75877 8.73828 2.92455 8.75 3.08628 8.75C4.14161 8.75 5.07968 8.30469 5.72258 7.61719C6.36548 8.30469 7.30355 8.75 8.35887 8.75C9.4142 8.75 10.3523 8.30469 10.9952 7.61719C11.6381 8.30469 12.5761 8.75 13.6315 8.75C14.6908 8.75 15.6249 8.30469 16.2678 7.61719C16.9147 8.30469 17.8487 8.75 18.904 8.75C19.0698 8.75 19.2316 8.73828 19.3933 8.71875C21.6374 8.42969 22.7008 5.88672 21.4999 4.05469H21.4959ZM19.5591 9.95703H19.555C19.3407 9.98438 19.1224 10 18.9 10C18.3986 10 17.9175 9.92578 17.4686 9.79297V14C17.4686 15.1046 16.5732 16 15.4686 16H11H6.50961C5.4013 16 4.50432 15.0987 4.50963 13.9904L4.52978 9.78906C4.07692 9.92578 3.59171 10 3.09033 10C2.86794 10 2.64555 9.98438 2.43125 9.95703H2.42721C2.26143 9.93359 2.0997 9.90625 1.942 9.86719V16.1905C1.942 18.0952 3.82603 20 5.73908 20H16.2608C18.1739 20 20.0869 18.0952 20.0869 16.1905L20.0564 9.86719C19.8947 9.90625 19.7329 9.9375 19.5591 9.95703Z" fill="white"/>
</svg>

<svg width="22" height="20" fill="none" xmlns="http://www.w3.org/2000/svg"><path d="M21.496 4.055 19.609.952C19.13 0 17.609 0 17.217 0H4.783C4.39 0 3.348 0 2.87.952L.499 4.055C-.698 5.883.36 8.425 2.597 8.719c.162.02.328.031.49.031a3.6 3.6 0 0 0 2.636-1.133A3.6 3.6 0 0 0 8.359 8.75a3.6 3.6 0 0 0 2.636-1.133 3.6 3.6 0 0 0 2.637 1.133c1.059 0 1.993-.445 2.636-1.133a3.607 3.607 0 0 0 2.636 1.133c.166 0 .328-.012.49-.031 2.243-.29 3.307-2.832 2.106-4.664h-.004zm-1.937 5.902h-.004a5.042 5.042 0 0 1-2.086-.164V14a2 2 0 0 1-2 2H6.51a2 2 0 0 1-2-2.01l.02-4.2a4.983 4.983 0 0 1-2.099.167h-.004a4.826 4.826 0 0 1-.485-.09v6.323c0 1.905 1.884 3.81 3.797 3.81h10.522c1.913 0 3.826-1.905 3.826-3.81l-.03-6.323c-.162.04-.324.07-.498.09z" fill="#fff"/></svg>
